X: 10
T: The Holly and the Ivy
C: Christmas
M: 3/4
K: D
L: 1/4
ud | "D" d/d/ d "G" b | "D" (a f) d | vd/d/ d "G" b | "D" a2 (ua/g/) |
w: The hol-ly and the i-vy, when they are both full grown, of -
(vf/e/) d (vf/uf/) | "G" vB/uB/ "D" A (ud/e/) | vf/ug/ f "A" e | "D" vd2 ud |
w: all the trees that are in the wood, The - hol-ly bears the crown;  the
"D" d/d/ d "G" b | "D" (a f) d | vd/d/ d "G" b | "D" a2 (ua/g/) |
w: ris-ing of the sun, And the run-ning of the deer;  The -
(vf/e/) d f | "G" uB/vB/ "D" uA (d/e/) | (f/g/) vd "A" ue | "D" vd2 |]
w: play-ing of the mer-ry or-gan, Sweet sing-ing in the choir.
